src/svg/pointinghand.svg

<?xml version="1.0" encoding="UTF-8" standalone="no"?>
<svg width="35px" height="35px" viewBox="0 0 35 35" version="1.1" xmlns="http://www.w3.org/2000/svg" xmlns:xlink="http://www.w3.org/1999/xlink">
    <defs></defs>
    <g id="Page-1" stroke="none" stroke-width="1" fill="none" fill-rule="evenodd">
        <g id="pointinghand">
            <g id="bg-copy" fill="#FFFFFF" opacity="0.00999999978">
                <rect id="bg" x="0" y="0" width="35" height="35"></rect>
            </g>
            <path d="M13.3315,21.3799 C13.0475,21.0209 12.7025,20.2869 12.0885,19.3959 C11.7405,18.8919 10.8775,17.9429 10.6205,17.4609 C10.3975,17.0349 10.4215,16.8439 10.4745,16.4909 C10.5685,15.8629 11.2125,15.3739 11.8995,15.4399 C12.4185,15.4889 12.8585,15.8319 13.2545,16.1559 C13.4935,16.3509 13.7875,16.7299 13.9645,16.9439 C14.1275,17.1399 14.1675,17.2209 14.3415,17.4529 C14.5715,17.7599 14.6435,17.9119 14.5555,17.5739 C14.4845,17.0779 14.3685,16.2309 14.2005,15.4819 C14.0725,14.9139 14.0415,14.8249 13.9195,14.3889 C13.7905,13.9249 13.7245,13.5999 13.6035,13.1079 C13.5195,12.7599 13.3685,12.0489 13.3275,11.6489 C13.2705,11.1019 13.2405,10.2099 13.5915,9.7999 C13.8665,9.4789 14.4975,9.3819 14.8885,9.5799 C15.4005,9.8389 15.6915,10.5829 15.8245,10.8799 C16.0635,11.4139 16.2115,12.0309 16.3405,12.8409 C16.5045,13.8719 16.8065,15.3029 16.8165,15.6039 C16.8405,15.2349 16.7485,14.4579 16.8125,14.1039 C16.8705,13.7829 17.1405,13.4099 17.4785,13.3089 C17.7645,13.2239 18.0995,13.1929 18.3945,13.2539 C18.7075,13.3179 19.0375,13.5419 19.1605,13.7529 C19.5225,14.3769 19.5295,15.6519 19.5445,15.5839 C19.6305,15.2079 19.6155,14.3549 19.8285,13.9999 C19.9685,13.7659 20.3255,13.5549 20.5155,13.5209 C20.8095,13.4689 21.1705,13.4529 21.4795,13.5129 C21.7285,13.5619 22.0655,13.8579 22.1565,13.9999 C22.3745,14.3439 22.4985,15.3169 22.5355,15.6579 C22.5505,15.7989 22.6095,15.2659 22.8285,14.9219 C23.2345,14.2829 24.6715,14.1589 24.7265,15.5609 C24.7515,16.2149 24.7465,16.1849 24.7465,16.6249 C24.7465,17.1419 24.7345,17.4529 24.7065,17.8269 C24.6755,18.2269 24.5895,19.1309 24.4645,19.5689 C24.3785,19.8699 24.0935,20.5469 23.8125,20.9529 C23.8125,20.9529 22.7385,22.2029 22.6215,22.7659 C22.5035,23.3279 22.5425,23.3319 22.5195,23.7309 C22.4965,24.1289 22.6405,24.6529 22.6405,24.6529 C22.6405,24.6529 21.8385,24.7569 21.4065,24.6879 C21.0155,24.6249 20.5315,23.8469 20.4065,23.6089 C20.2345,23.2809 19.8675,23.3439 19.7245,23.5859 C19.4995,23.9689 19.0155,24.6559 18.6735,24.6989 C18.0055,24.7829 16.6195,24.7299 15.5345,24.7189 C15.5345,24.7189 15.7195,23.7079 15.3075,23.3609 C15.0025,23.1019 14.4775,22.5769 14.1635,22.3009 L13.3315,21.3799 Z" id="hand" fill="#FFFFFF"></path>
            <path d="M13.3315,21.3799 C13.0475,21.0209 12.7025,20.2869 12.0885,19.3959 C11.7405,18.8919 10.8775,17.9429 10.6205,17.4609 C10.3975,17.0349 10.4215,16.8439 10.4745,16.4909 C10.5685,15.8629 11.2125,15.3739 11.8995,15.4399 C12.4185,15.4889 12.8585,15.8319 13.2545,16.1559 C13.4935,16.3509 13.7875,16.7299 13.9645,16.9439 C14.1275,17.1399 14.1675,17.2209 14.3415,17.4529 C14.5715,17.7599 14.6435,17.9119 14.5555,17.5739 C14.4845,17.0779 14.3685,16.2309 14.2005,15.4819 C14.0725,14.9139 14.0415,14.8249 13.9195,14.3889 C13.7905,13.9249 13.7245,13.5999 13.6035,13.1079 C13.5195,12.7599 13.3685,12.0489 13.3275,11.6489 C13.2705,11.1019 13.2405,10.2099 13.5915,9.7999 C13.8665,9.4789 14.4975,9.3819 14.8885,9.5799 C15.4005,9.8389 15.6915,10.5829 15.8245,10.8799 C16.0635,11.4139 16.2115,12.0309 16.3405,12.8409 C16.5045,13.8719 16.8065,15.3029 16.8165,15.6039 C16.8405,15.2349 16.7485,14.4579 16.8125,14.1039 C16.8705,13.7829 17.1405,13.4099 17.4785,13.3089 C17.7645,13.2239 18.0995,13.1929 18.3945,13.2539 C18.7075,13.3179 19.0375,13.5419 19.1605,13.7529 C19.5225,14.3769 19.5295,15.6519 19.5445,15.5839 C19.6305,15.2079 19.6155,14.3549 19.8285,13.9999 C19.9685,13.7659 20.3255,13.5549 20.5155,13.5209 C20.8095,13.4689 21.1705,13.4529 21.4795,13.5129 C21.7285,13.5619 22.0655,13.8579 22.1565,13.9999 C22.3745,14.3439 22.4985,15.3169 22.5355,15.6579 C22.5505,15.7989 22.6095,15.2659 22.8285,14.9219 C23.2345,14.2829 24.6715,14.1589 24.7265,15.5609 C24.7515,16.2149 24.7465,16.1849 24.7465,16.6249 C24.7465,17.1419 24.7345,17.4529 24.7065,17.8269 C24.6755,18.2269 24.5895,19.1309 24.4645,19.5689 C24.3785,19.8699 24.0935,20.5469 23.8125,20.9529 C23.8125,20.9529 22.7385,22.2029 22.6215,22.7659 C22.5035,23.3279 22.5425,23.3319 22.5195,23.7309 C22.4965,24.1289 22.6405,24.6529 22.6405,24.6529 C22.6405,24.6529 21.8385,24.7569 21.4065,24.6879 C21.0155,24.6249 20.5315,23.8469 20.4065,23.6089 C20.2345,23.2809 19.8675,23.3439 19.7245,23.5859 C19.4995,23.9689 19.0155,24.6559 18.6735,24.6989 C18.0055,24.7829 16.6195,24.7299 15.5345,24.7189 C15.5345,24.7189 15.7195,23.7079 15.3075,23.3609 C15.0025,23.1019 14.4775,22.5769 14.1635,22.3009 L13.3315,21.3799 L13.3315,21.3799 Z" id="hand-border" stroke="#000000" stroke-width="0.75" stroke-linecap="round" stroke-linejoin="round"></path>
            <path d="M21.5664,21.7344 L21.5664,18.2754" id="line3" stroke="#000000" stroke-width="0.75" stroke-linecap="round"></path>
            <path d="M19.5508,21.7461 L19.5348,18.2731" id="line2" stroke="#000000" stroke-width="0.75" stroke-linecap="round"></path>
            <path d="M17.5547,18.3047 L17.5757,21.7307" id="line1" stroke="#000000" stroke-width="0.75" stroke-linecap="round"></path>
        </g>
    </g>
</svg>

<svg height="35" viewBox="0 0 35 35" width="35" xmlns="http://www.w3.org/2000/svg"><g fill="none" fill-rule="evenodd"><path d="m13.3315 21.3799c-.284-.359-.629-1.093-1.243-1.984-.348-.504-1.211-1.453-1.468-1.935-.223-.426-.199-.617-.146-.97.094-.628.738-1.117 1.425-1.051.519.049.959.392 1.355.716.239.195.533.574.71.788.163.196.203.277.377.509.23.307.302.459.214.121-.071-.496-.187-1.343-.355-2.092-.128-.568-.159-.657-.281-1.093-.129-.464-.195-.789-.316-1.281-.084-.348-.235-1.059-.276-1.459-.057-.547-.087-1.439.264-1.849.275-.321.906-.418 1.297-.22.512.259.803 1.003.936 1.3.239.534.387 1.151.516 1.961.164 1.031.466 2.462.476 2.763.024-.369-.068-1.146-.004-1.5.058-.321.328-.694.666-.795.286-.085.621-.116.916-.055.313.064.643.288.766.499.362.624.369 1.899.384 1.831.086-.376.071-1.229.284-1.584.14-.234.497-.445.687-.479.294-.052.655-.068.964-.008.249.049.586.345.677.487.218.344.342 1.317.379 1.658.015.141.074-.392.293-.736.406-.639 1.843-.763 1.898.639.025.654.02.624.02 1.064 0 .517-.012.828-.04 1.202-.031.4-.117 1.304-.242 1.742-.086.301-.371.978-.652 1.384 0 0-1.074 1.25-1.191 1.813-.118.562-.079.566-.102.965-.023.398.121.922.121.922s-.802.104-1.234.035c-.391-.063-.875-.841-1-1.079-.172-.328-.539-.265-.682-.023-.225.383-.709 1.07-1.051 1.113-.668.084-2.054.031-3.139.02 0 0 .185-1.011-.227-1.358-.305-.259-.83-.784-1.144-1.06z" fill="#fff"/><g stroke="#000" stroke-linecap="round" stroke-width=".75"><path d="m13.3315 21.3799c-.284-.359-.629-1.093-1.243-1.984-.348-.504-1.211-1.453-1.468-1.935-.223-.426-.199-.617-.146-.97.094-.628.738-1.117 1.425-1.051.519.049.959.392 1.355.716.239.195.533.574.71.788.163.196.203.277.377.509.23.307.302.459.214.121-.071-.496-.187-1.343-.355-2.092-.128-.568-.159-.657-.281-1.093-.129-.464-.195-.789-.316-1.281-.084-.348-.235-1.059-.276-1.459-.057-.547-.087-1.439.264-1.849.275-.321.906-.418 1.297-.22.512.259.803 1.003.936 1.3.239.534.387 1.151.516 1.961.164 1.031.466 2.462.476 2.763.024-.369-.068-1.146-.004-1.5.058-.321.328-.694.666-.795.286-.085.621-.116.916-.055.313.064.643.288.766.499.362.624.369 1.899.384 1.831.086-.376.071-1.229.284-1.584.14-.234.497-.445.687-.479.294-.052.655-.068.964-.008.249.049.586.345.677.487.218.344.342 1.317.379 1.658.015.141.074-.392.293-.736.406-.639 1.843-.763 1.898.639.025.654.02.624.02 1.064 0 .517-.012.828-.04 1.202-.031.4-.117 1.304-.242 1.742-.086.301-.371.978-.652 1.384 0 0-1.074 1.25-1.191 1.813-.118.562-.079.566-.102.965-.023.398.121.922.121.922s-.802.104-1.234.035c-.391-.063-.875-.841-1-1.079-.172-.328-.539-.265-.682-.023-.225.383-.709 1.07-1.051 1.113-.668.084-2.054.031-3.139.02 0 0 .185-1.011-.227-1.358-.305-.259-.83-.784-1.144-1.06z" stroke-linejoin="round"/><path d="m21.5664 21.7344v-3.459"/><path d="m19.5508 21.7461-.016-3.473"/><path d="m17.5547 18.3047.021 3.426"/></g></g></svg>
